X:1
T: The Donside Lasses
C:Alexander Walker
R:Reel
Q: 232
K:A
M:4/4
L:1/8
|:F|EA, CA, EC AF|EF EC FB, B,F|EA, CA, EF Ac|dB eB cA AF|
EA, CA, EC AF|EF EC FB, B,F|EA, CA, EF Ac|dB eB cA AB|
cA FA EC A,E|dB cA FB Bd|cA FA EC A,c|fa ef cA AB|
cA FA EC A,E|dB cA FB Bg|ae fa AB cB|AF ED CA, A,:|
